X: 25115
T: Mairi MacLennan
R: reel
M: 4/4
K: Dmajor
|:A,|D2DE FA,CE|FD (3DDD FAdf|gfed fdAF|GFED CEEF|
D2DE FA,CE|FD (3DDD FAdf|gfed fdAF|GEAG FDD:|
|:A|d2df abag|fdcd Adfd|e2eg bagf|ge (3eee Bege|
d2df abag|fdcd Adfa|gfed cBAF|GEAG FDD:|

